X:1
T:Splendor Paternae, LM
T:Splendor Paternae, LM
T:Plainsong, Mode I
T:Public Domain Courtesy of the Cyber Hymnal™
C:Plainsong, Mode I
Z:Public Domain
Z:Courtesy of the Cyber Hymnal™
%%score 1 ( 2 3 ) ( 4 5 )
L:1/8
Q:1/4=63
M:none
K:C
V:1 treble 
V:2 treble 
V:3 treble 
V:4 bass 
V:5 bass 
V:1
 FFGA _BAG A2 | AGcc G x | A_B A2 G2 | AAGA GFE F2 | GAGF E FGE D2 |] %5
V:2
 F FGA _B AG [FA]2 | A Gc c G x | [CA][D_B] A2 G2 | [CA] AG AGFE F2 | G AGF EFG[CE] [A,D]2 |] %5
V:3
 x3 F2 E2 x2 | C2- C4- | x2 E4 | x D2 E2 x4 | C2- C4 D2 x2 |] %5
V:4
 [F,A,-] A,2 C,2 F,3 x | E,4 x2 | F,2 C,4 | A,, _B,,2 C,2 A,G, A,2 | %4
 E, F,2 [C,G,]2 [_B,,_B,]2 [C,G,] [D,F,]2 |] %5
V:5
 x D,2- D,2 x4 | x6 | x6 | x5 D,4 | x10 |] %5

